symbols/web/crop_rotate/materialsymbolsrounded/crop_rotate_wght100_48px.svg

<svg xmlns="http://www.w3.org/2000/svg" height="48" width="48"><path d="M30.1 29v-9.5q0-.6-.5-1.1-.5-.5-1.1-.5h-9.45v-1.1h9.45q1.15 0 1.925.8.775.8.775 1.9V29Zm.55 6.25q-.25 0-.4-.15-.15-.15-.15-.4v-3.5H19.55q-1.15 0-1.925-.8-.775-.8-.775-1.9V17.9H13.3q-.25 0-.4-.15-.15-.15-.15-.4 0-.2.15-.375t.4-.175h3.55v-3.5q0-.25.15-.4.15-.15.4-.15t.4.15q.15.15.15.4v15.2q0 .6.5 1.1.5.5 1.1.5h17.8q.25 0 .4.15.15.15.15.4t-.15.4q-.15.15-.4.15H31.2v3.5q0 .25-.15.4-.15.15-.4.15Zm14.1-13.3q-.2 0-.325-.1t-.125-.3q-.95-7.7-6.875-12.825Q31.5 3.6 23.7 3.65l3.9 3.9q.2.25.2.45t-.15.35q-.25.2-.45.2t-.4-.2L22.45 4q-.55-.55-.4-1 .15-.45.95-.45.25.05.475.05h.425q8.2 0 14.275 5.35 6.075 5.35 7.175 13.4 0 .25-.15.425t-.45.175ZM24.1 45.4q-8.2 0-14.275-5.325Q3.75 34.75 2.7 26.65q-.05-.25.125-.425t.425-.175q.2 0 .325.1t.125.3q.95 7.7 6.875 12.825Q16.5 44.4 24.35 44.35l-3.95-3.9q-.15-.25-.15-.45t.2-.4q.15-.15.375-.15t.425.15l4.35 4.35q.55.6.375 1.05-.175.45-.975.45-.25-.05-.45-.05h-.45Z"/></svg>

<svg xmlns="http://www.w3.org/2000/svg" height="48" width="48"><path d="M30.1 29V19.5Q30.1 18.9 29.6 18.4Q29.1 17.9 28.5 17.9H19.05V16.8H28.5Q29.65 16.8 30.425 17.6Q31.2 18.4 31.2 19.5V29ZM30.65 35.25Q30.4 35.25 30.25 35.1Q30.1 34.95 30.1 34.7V31.2H19.55Q18.4 31.2 17.625 30.4Q16.85 29.6 16.85 28.5V17.9H13.3Q13.05 17.9 12.9 17.75Q12.75 17.6 12.75 17.35Q12.75 17.15 12.9 16.975Q13.05 16.8 13.3 16.8H16.85V13.3Q16.85 13.05 17 12.9Q17.15 12.75 17.4 12.75Q17.65 12.75 17.8 12.9Q17.95 13.05 17.95 13.3V28.5Q17.95 29.1 18.45 29.6Q18.95 30.1 19.55 30.1H37.35Q37.6 30.1 37.75 30.25Q37.9 30.4 37.9 30.65Q37.9 30.9 37.75 31.05Q37.6 31.2 37.35 31.2H31.2V34.7Q31.2 34.95 31.05 35.1Q30.9 35.25 30.65 35.25ZM44.75 21.95Q44.55 21.95 44.425 21.85Q44.3 21.75 44.3 21.55Q43.35 13.85 37.425 8.725Q31.5 3.6 23.7 3.65L27.6 7.55Q27.8 7.8 27.8 8Q27.8 8.2 27.65 8.35Q27.4 8.55 27.2 8.55Q27 8.55 26.8 8.35L22.45 4Q21.9 3.45 22.05 3Q22.2 2.55 23 2.55Q23.25 2.6 23.475 2.6Q23.7 2.6 23.9 2.6Q32.1 2.6 38.175 7.95Q44.25 13.3 45.35 21.35Q45.35 21.6 45.2 21.775Q45.05 21.95 44.75 21.95ZM24.1 45.4Q15.9 45.4 9.825 40.075Q3.75 34.75 2.7 26.65Q2.65 26.4 2.825 26.225Q3 26.05 3.25 26.05Q3.45 26.05 3.575 26.15Q3.7 26.25 3.7 26.45Q4.65 34.15 10.575 39.275Q16.5 44.4 24.35 44.35L20.4 40.45Q20.25 40.2 20.25 40Q20.25 39.8 20.45 39.6Q20.6 39.45 20.825 39.45Q21.05 39.45 21.25 39.6L25.6 43.95Q26.15 44.55 25.975 45Q25.8 45.45 25 45.45Q24.75 45.4 24.55 45.4Q24.35 45.4 24.1 45.4Z"/></svg>
